build/img/phone.svg

<svg xmlns="http://www.w3.org/2000/svg" width="14" height="15"><path fill-rule="evenodd" fill="#FFF" d="M13.693 11.865L11.53 9.542c-.431-.46-1.144-.446-1.589.033l-1.09 1.169-.215-.128c-.689-.41-1.63-.97-2.622-2.034-.994-1.068-1.518-2.081-1.899-2.82l-.118-.225.731-.784.36-.386c.446-.48.46-1.245.029-1.706L2.954.338c-.429-.462-1.143-.447-1.59.032l-.609.658.015.018c-.204.28-.374.603-.501.951a4.132 4.132 0 00-.223.964c-.287 2.542.796 4.864 3.732 8.017 4.059 4.355 7.331 4.027 7.472 4.01a3.443 3.443 0 001.784-.779l.013.013.618-.649c.445-.481.458-1.245.028-1.708z"/></svg>

<svg 
 xmlns="http://www.w3.org/2000/svg"
 xmlns:xlink="http://www.w3.org/1999/xlink"
 width="14px" height="15px">
<path fill-rule="evenodd"  fill="rgb(255, 255, 255)"
 d="M13.693,11.865 L11.530,9.542 C11.099,9.082 10.386,9.096 9.941,9.575 L8.851,10.744 C8.782,10.704 8.711,10.661 8.636,10.616 C7.947,10.206 7.006,9.646 6.014,8.582 C5.020,7.514 4.496,6.501 4.115,5.762 C4.074,5.685 4.035,5.610 3.997,5.537 L4.728,4.753 L5.088,4.367 C5.534,3.887 5.548,3.122 5.117,2.661 L2.954,0.338 C2.525,-0.124 1.811,-0.109 1.364,0.370 L0.755,1.028 L0.770,1.046 C0.566,1.326 0.396,1.649 0.269,1.997 C0.152,2.329 0.078,2.645 0.046,2.961 C-0.241,5.503 0.842,7.825 3.778,10.978 C7.837,15.333 11.109,15.005 11.250,14.988 C11.557,14.949 11.852,14.871 12.151,14.746 C12.473,14.611 12.774,14.428 13.034,14.209 L13.047,14.222 L13.665,13.573 C14.110,13.092 14.123,12.328 13.693,11.865 L13.693,11.865 Z"/>
</svg>
